svg/printer_3d_nozzle_outline.svg

<svg xmlns="http://www.w3.org/2000/svg" viewBox="0 0 24 24"><path d="M7 2h10v5h2v6h-2.5L13 17h-2l-3.5-4H5V7h2zm3 20H2v-2h8a1 1 0 0 0 1-1v-1h2v1a3 3 0 0 1-3 3M7 9v2h1.5l3.5 4 3.5-4H17V9h-2V4H9v5z"/></svg>

<?xml version="1.0" encoding="UTF-8"?><!DOCTYPE svg PUBLIC "-//W3C//DTD SVG 1.1//EN" "http://www.w3.org/Graphics/SVG/1.1/DTD/svg11.dtd"><svg xmlns="http://www.w3.org/2000/svg" xmlns:xlink="http://www.w3.org/1999/xlink" version="1.1" id="mdi-printer-3d-nozzle-outline" width="24" height="24" viewBox="0 0 24 24"><path d="M7,2H17V7H19V13H16.5L13,17H11L7.5,13H5V7H7V2M10,22H2V20H10A1,1 0 0,0 11,19V18H13V19A3,3 0 0,1 10,22M7,9V11H8.5L12,15L15.5,11H17V9H15V4H9V9H7Z" /></svg>
